src/assets/collect-fill.svg

<svg fill="none" viewBox="0 0 16 16" xmlns="http://www.w3.org/2000/svg"><g stroke="#18c37b" stroke-linecap="round" stroke-linejoin="round" stroke-width="2"><path d="m8.67294 1.94687 3.93336 1.74667c1.1333.5 1.1333 1.32667 0 1.82667l-3.93336 1.74666c-.44667.2-1.18.2-1.62667 0l-3.93333-1.74666c-1.13333-.5-1.13333-1.32667 0-1.82667l3.93333-1.74667c.44667-.2 1.18-.2 1.62667 0z" fill="#18c37b"/><path d="m2 7.33334c0 .56.42 1.20667.93333 1.43334l4.52667 2.01332c.34667.1533.74.1533 1.08 0l4.5267-2.01332c.5133-.22667.9333-.87334.9333-1.43334"/><path d="m2 10.6667c0 .62.36667 1.18.93333 1.4333l4.52667 2.0133c.34667.1534.74.1534 1.08 0l4.5267-2.0133c.5666-.2533.9333-.8133.9333-1.4333"/></g></svg>

<svg xmlns="http://www.w3.org/2000/svg" fill="none" viewBox="0 0 16 16">
    <path fill="#18C37B" stroke="#18C37B" stroke-linecap="round" stroke-linejoin="round" stroke-width="2" d="M8.67294 1.94687L12.6063 3.69354C13.7396 4.19354 13.7396 5.02021 12.6063 5.52021L8.67294 7.26687C8.22627 7.46687 7.49294 7.46687 7.04627 7.26687L3.11294 5.52021C1.97961 5.02021 1.97961 4.19354 3.11294 3.69354L7.04627 1.94687C7.49294 1.74687 8.22627 1.74687 8.67294 1.94687Z"/>
    <path stroke="#18C37B" stroke-linecap="round" stroke-linejoin="round" stroke-width="2" d="M2 7.33334C2 7.89334 2.42 8.54001 2.93333 8.76668L7.46 10.78C7.80667 10.9333 8.2 10.9333 8.54 10.78L13.0667 8.76668C13.58 8.54001 14 7.89334 14 7.33334"/>
    <path stroke="#18C37B" stroke-linecap="round" stroke-linejoin="round" stroke-width="2" d="M2 10.6667C2 11.2867 2.36667 11.8467 2.93333 12.1L7.46 14.1133C7.80667 14.2667 8.2 14.2667 8.54 14.1133L13.0667 12.1C13.6333 11.8467 14 11.2867 14 10.6667"/>
</svg>
